X: 467
T: the Wearing of the Green   #2
N: Irish title: cai.tea.d an glas
R: air, march
%S: s:3 b:12(4+4+4)
B: O'Neill's 1850 #467
Z: henrik.norbeck@mailbox.swipnet.se
N: Compacted by using labels and play order [JC]
P: Play AA BA
Q: "moderate"
M: C
L: 1/8
K: G
"^A"|: GA | BBB>A (B<d)d>B | BAA>G A2Bd | ecHg>f edHB>G | AGG>G "^fine"G2 :|
"^B"[| g>f | eedB ddGA | (B{d}c)(B>A) B2g>f | eedB ddGB | AGFE "^->A"D2 |]
